icons/tokens/0xe2f2a5C287993345a840Db3B0845fbC70f5935a5/logo.svg

<svg width="32" height="32" viewBox="0 0 32 32" fill="none" xmlns="http://www.w3.org/2000/svg">
<path d="M16 32C24.8365 32 32 24.8366 32 16C32 7.16344 24.8365 0 16 0C7.16345 0 0 7.16344 0 16C0 24.8366 7.16345 32 16 32Z" fill="black"/>
<path fill-rule="evenodd" clip-rule="evenodd" d="M15.6347 18.6731C13.3584 18.4725 11.7015 17.2839 11.6177 15.125H14.6637C14.7305 15.8112 15.0654 16.2293 15.6343 16.4138V13.7693L15.4712 13.7267C13.7102 13.2684 11.6006 12.7193 11.6006 10.1707C11.6006 8.07858 13.3581 6.83982 15.6343 6.68907V5.33334H16.7056V6.68907C18.9986 6.87323 20.4717 8.0448 20.6221 10.1707H17.5593C17.4925 9.55128 17.1746 9.16623 16.706 8.99911V11.5932C16.8019 11.6201 16.8992 11.647 16.9976 11.6741C18.7359 12.1533 20.7895 12.7195 20.7895 15.1751C20.7895 16.9824 19.3503 18.5728 16.706 18.6898V20.0455H15.6347V18.6731ZM15.6347 11.2416V8.91519C15.0154 9.01584 14.6303 9.3838 14.6303 10.0366C14.6303 10.6222 15.032 10.9739 15.6347 11.2416ZM16.7056 16.4636V14.0871C17.3585 14.3381 17.7937 14.6727 17.7937 15.2754C17.7937 15.8948 17.3751 16.3467 16.7056 16.4636Z" fill="white"/>
<path fill-rule="evenodd" clip-rule="evenodd" d="M6.51859 22.1468H25.6585V25.0311H6.51859V22.1468Z" fill="white"/>
</svg>

<svg width="32" height="32" fill="none" xmlns="http://www.w3.org/2000/svg"><path d="M16 32c8.837 0 16-7.163 16-16S24.837 0 16 0 0 7.163 0 16s7.163 16 16 16z" fill="#000"/><path fill-rule="evenodd" clip-rule="evenodd" d="M15.635 18.673c-2.277-.2-3.934-1.39-4.017-3.548h3.046c.066.686.401 1.104.97 1.289v-2.645l-.163-.042c-1.76-.459-3.87-1.008-3.87-3.556 0-2.092 1.757-3.331 4.033-3.482V5.333h1.072V6.69c2.293.184 3.766 1.356 3.916 3.482H17.56c-.067-.62-.384-1.005-.853-1.172v2.594l.292.081c1.738.48 3.791 1.046 3.791 3.501 0 1.807-1.439 3.398-4.083 3.515v1.355h-1.071v-1.372zm0-7.431V8.915c-.62.1-1.005.469-1.005 1.122 0 .585.402.937 1.005 1.205zm1.07 5.222v-2.377c.654.251 1.089.586 1.089 1.188 0 .62-.419 1.072-1.088 1.189zM6.519 22.147h19.14v2.884H6.518v-2.884z" fill="#fff"/></svg>
